public/library/gnosis-icon-dark.svg

<svg width="72" height="72" viewBox="0 0 72 72" fill="none" xmlns="http://www.w3.org/2000/svg">
<circle cx="36" cy="36" r="36" fill="#1E1E1E"/>
<path d="M60.8623 21.1016C59.3309 22.6408 57.7964 24.1847 56.2619 25.7302C60.0579 30.5637 59.0488 36.5702 55.5411 40.0708C51.9373 43.6644 45.9062 44.4666 41.1167 40.6682C39.4504 42.361 37.7733 44.0632 35.9629 45.9019C34.2749 44.1455 32.6226 42.4277 30.9811 40.7194C26.2334 44.3689 20.5387 43.6287 17.0388 40.5316C15.3492 39.0358 14.2007 37.2017 13.7062 35.0014C12.9328 31.5583 13.6892 28.4286 15.8608 25.6542C14.2766 24.0932 12.7545 22.5943 11.1983 21.0628C4.64949 31.3798 5.32375 47.1185 16.3413 57.313C27.3355 67.4888 44.3826 67.5587 55.4171 57.5379C66.6888 47.3 67.3522 31.2448 60.8623 21.1016ZM13.1157 18.3163C20.7464 25.9552 28.374 33.5894 36.09 41.3136C43.7486 33.698 51.4134 26.0762 59.055 18.4761C47.5028 3.0618 24.1921 3.33955 13.1157 18.3163ZM36.0714 35.8207C30.186 29.9259 24.2804 24.0109 18.3718 18.0929C27.0984 8.75644 43.7641 7.85647 53.7571 18.1239C47.819 24.0652 41.9227 29.9663 36.0714 35.8207ZM53.9648 27.9568C50.4726 31.4435 46.9819 34.9301 43.4913 38.4167C45.8597 40.7892 50.8678 40.4292 53.4471 37.6719C56.5502 34.3575 55.7194 29.6947 53.9648 27.9568ZM18.037 28.0282C15.8174 30.5497 16.0871 34.9999 18.6585 37.7246C21.199 40.4152 25.6863 40.755 28.4825 38.5393C24.9888 35.0247 21.5121 31.5241 18.037 28.0282Z" fill="#F1EBDD"/>
<path d="M13.1172 18.3163C20.7479 25.9552 28.3755 33.5894 36.0915 41.3136C43.7501 33.698 51.415 26.0762 59.0565 18.4761C47.5043 3.0618 24.1936 3.33955 13.1172 18.3163ZM36.0729 35.8207C30.1875 29.9259 24.2819 24.0109 18.3733 18.0929C27.0999 8.75644 43.7656 7.85647 53.7586 18.1239C47.8205 24.0652 41.9242 29.9663 36.0729 35.8207Z" fill="#F1EBDD"/>
<path d="M43.4902 38.4167C46.9809 34.9301 50.473 31.4435 53.9637 27.9569C55.7183 29.6948 56.5491 34.3576 53.446 37.6735C50.8668 40.4293 45.8587 40.7908 43.4902 38.4183V38.4167Z" fill="#F1EBDD"/>
<path d="M28.4811 38.5394C25.6849 40.7551 21.1991 40.4169 18.6586 37.7247C16.0856 35 15.8175 30.5498 18.0371 28.0283C21.5122 31.5242 24.9889 35.0248 28.4826 38.5394H28.4811Z" fill="#F1EBDD"/>
</svg>

<svg xmlns="http://www.w3.org/2000/svg" width="72" height="72" fill="none" viewBox="0 0 72 72"><circle cx="36" cy="36" r="36" fill="#1e1e1e"/><path fill="#f1ebdd" d="M60.862 21.102q-2.298 2.31-4.6 4.628c3.796 4.834 2.787 10.84-.72 14.34-3.605 3.594-9.636 4.397-14.425.598l-5.154 5.234-4.982-5.183c-4.748 3.65-10.442 2.91-13.942-.187-1.69-1.496-2.838-3.33-3.333-5.53-.773-3.444-.017-6.573 2.155-9.348l-4.663-4.591C4.65 31.38 5.324 47.119 16.341 57.313c10.994 10.176 28.042 10.246 39.076.225C66.69 47.3 67.352 31.245 60.862 21.102m-47.746-2.786c7.63 7.64 15.258 15.273 22.974 22.998l22.965-22.838c-11.552-15.414-34.863-15.136-45.94-.16M36.07 35.821l-17.7-17.728c8.727-9.337 25.393-10.237 35.386.03zm17.894-7.864L43.49 38.417c2.369 2.372 7.377 2.012 9.956-.745 3.103-3.314 2.272-7.977.518-9.715m-35.928.071c-2.22 2.522-1.95 6.972.622 9.697 2.54 2.69 7.027 3.03 9.824.814-3.494-3.514-6.97-7.015-10.446-10.51"/><path fill="#f1ebdd" d="M13.117 18.316c7.63 7.64 15.258 15.273 22.975 22.998l22.965-22.838c-11.553-15.414-34.863-15.136-45.94-.16m22.956 17.505-17.7-17.728c8.727-9.337 25.393-10.237 35.386.03zM43.49 38.417q5.236-5.23 10.474-10.46c1.754 1.738 2.585 6.4-.518 9.716-2.58 2.756-7.587 3.118-9.956.745zM28.481 38.54c-2.796 2.215-7.282 1.877-9.822-.815-2.573-2.725-2.841-7.175-.622-9.697 3.475 3.496 6.952 6.997 10.446 10.511z"/></svg>
